lib/flags/md-moldova.svg

<svg xmlns="http://www.w3.org/2000/svg" fill="none" aria-hidden="true" viewBox="0 0 42 30"><g id="Country=MD - Moldova, Size=sm (36x24)" filter="url(#filter0_dd_91_26589)"><g clip-path="url(#clip0_91_26589)"><g id="flag"><mask id="mask0_91_26589" width="36" height="24" x="3" y="2" maskUnits="userSpaceOnUse" style="mask-type:alpha"><rect id="mask" width="36" height="24" x="3" y="2" fill="white"/></mask><g mask="url(#mask0_91_26589)"><g id="contents"><path id="bottom" fill="#D9071E" fill-rule="evenodd" d="M27.75 2H39V26H27.75V2Z" clip-rule="evenodd"/><path id="left" fill="#3D58DB" fill-rule="evenodd" d="M3 2H16.5V26H3V2Z" clip-rule="evenodd"/><path id="middle" fill="#FBCD17" fill-rule="evenodd" d="M14.25 2H27.75V26H14.25V2Z" clip-rule="evenodd"/><g id="mark"><g id="pins"><path id="Combined Shape" fill="#FD1900" fill-rule="evenodd" d="M27.4332 21.6144L26.2485 22.1897L22.3216 15.8009L23.5063 15.2256L27.4332 21.6144ZM14.8276 21.768L16.0123 22.3434L19.9392 15.9546L18.7545 15.3792L14.8276 21.768Z" clip-rule="evenodd"/></g><path id="Combined Shape_2" fill="#A77B3B" fill-rule="evenodd" d="M15.8002 11.3892V16.9405C15.8002 18.1737 14.6056 19.7809 14.0032 20.3787C13.4007 20.9766 12.2041 22.3464 12.2041 22.3464V7.40851C12.2041 5.73294 14.0032 5.15736 14.0032 5.15736C14.0032 5.15736 15.497 5.42006 15.8002 7.40851V9.34645C16.2625 9.67007 17.8065 10.6627 18.8039 10.2437C19.9881 9.74619 20.3971 8.31924 20.3971 8.31924C20.3971 8.31924 20.2864 6.87935 19.8003 6.87935C19.3142 6.87935 19.2754 4.85107 21.1369 4.85107C22.9983 4.85107 23.2153 5.63289 23.2153 6.25612C23.2153 6.58281 22.9207 7.1071 22.6403 7.60603C22.3858 8.0589 22.1431 8.49088 22.1431 8.7352C22.1431 9.24869 22.5784 10.2437 23.2153 10.2437C23.662 10.2437 25.8104 9.50175 27.054 9.05853V7.40851C27.3573 5.42006 28.8511 5.15736 28.8511 5.15736C28.8511 5.15736 30.6501 5.73294 30.6501 7.40851V22.3464C30.6501 22.3464 29.4536 20.9766 28.8511 20.3787C28.2486 19.7809 27.054 18.1737 27.054 16.9405V11.3892H15.8002ZM17.7938 21.8324C19.0106 21.1281 20.7905 17.9703 20.7905 17.9703L21.3815 18.0924C21.3815 18.0924 22.2838 20.184 24.9369 21.8324C22.1089 22.5032 21.3815 23.8503 21.3815 23.8503C21.3815 22.7727 17.7938 21.8324 17.7938 21.8324ZM17.5979 19.8335C18.418 19.8335 19.0829 19.2739 19.0829 18.5835C19.0829 17.8932 18.418 17.3335 17.5979 17.3335C16.7777 17.3335 16.1129 17.8932 16.1129 18.5835C16.1129 19.2739 16.7777 19.8335 17.5979 19.8335ZM26.3098 18.5835C26.3098 19.2739 25.645 19.8335 24.8248 19.8335C24.0047 19.8335 23.3398 19.2739 23.3398 18.5835C23.3398 17.8932 24.0047 17.3335 24.8248 17.3335C25.645 17.3335 26.3098 17.8932 26.3098 18.5835Z" clip-rule="evenodd"/><path id="Path 148" fill="#FDFF00" d="M31.2827 12.4077L32.3154 12.8045L28.1084 21.4564L27.0757 21.0596L31.2827 12.4077Z"/><g id="shield"><path id="shield_2" fill="#E1E5E8" fill-rule="evenodd" d="M15.4199 9.8335H27.2999V17.4724C27.2999 17.4724 24.2769 18.2817 21.3599 19.6099C19.2066 18.19 15.4199 17.4724 15.4199 17.4724V9.8335Z" clip-rule="evenodd" opacity="0.3"/><mask id="mask1_91_26589" width="13" height="11" x="15" y="9" maskUnits="userSpaceOnUse" style="mask-type:alpha"><path id="shield_3" fill="white" fill-rule="evenodd" d="M15.4199 9.8335H27.2999V17.4724C27.2999 17.4724 24.2769 18.2817 21.3599 19.6099C19.2066 18.19 15.4199 17.4724 15.4199 17.4724V9.8335Z" clip-rule="evenodd"/></mask><g mask="url(#mask1_91_26589)"><rect id="Rectangle 37" width="11.88" height="5" x="15.4199" y="14.8335" fill="#3D58DB"/><rect id="Rectangle 37_2" width="11.88" height="5" x="15.4199" y="9.8335" fill="#FD1900"/><path id="Star 18" fill="#FDFF00" fill-rule="evenodd" d="M20.7601 12.0821L19.8597 12.1484L20.379 11.5257L19.8256 10.8809L20.7306 10.9844L21.0776 10.2734L21.4633 10.9996L22.3636 10.9334L21.8444 11.556L22.3977 12.2009L21.4928 12.0973L21.1458 12.8084L20.7601 12.0821Z" clip-rule="evenodd"/><path id="Path 145" fill="#FDFF00" fill-rule="evenodd" d="M19.1436 10.672C19.1436 10.672 16.7249 11.98 17.5311 12.9189C18.3374 13.8579 19.3522 13.9781 19.3522 13.9781C19.3522 13.9781 16.8781 17.2774 21.2326 19.1622C25.8946 17.3427 23.4429 13.9781 23.4429 13.9781C23.4429 13.9781 24.8779 13.6958 25.1653 12.6806C25.4526 11.6654 23.2895 10.501 23.2895 10.501C23.2895 10.501 24.6391 12.2398 24.331 12.6806C24.0229 13.1215 22.3724 13.5703 21.2326 13.5703C20.0929 13.5703 18.3329 13.2858 18.0489 12.5155C17.7649 11.7452 19.1436 10.672 19.1436 10.672Z" clip-rule="evenodd"/><path id="Rectangle 39" fill="#FDFF00" fill-rule="evenodd" d="M16.9049 14L18.3899 14.8333L16.9049 15.6667L15.4199 14.8333L16.9049 14Z" clip-rule="evenodd"/><path id="Rectangle 39_2" fill="#FDFF00" fill-rule="evenodd" d="M25.8151 14L27.3001 14.8333L25.8151 15.6667L24.3301 14.8333L25.8151 14Z" clip-rule="evenodd"/><path id="Oval 30" fill="#FDFF00" fill-rule="evenodd" d="M16.8602 17.3C17.1087 17.3 17.3102 17.1209 17.3102 16.9C17.3102 16.6791 17.1087 16.5 16.8602 16.5C16.6116 16.5 16.4102 16.6791 16.4102 16.9C16.4102 17.1209 16.6116 17.3 16.8602 17.3Z" clip-rule="evenodd"/><path id="Oval 30_2" fill="#FDFF00" fill-rule="evenodd" d="M26.4338 16.5429C26.0475 16.2649 25.4554 16.3456 25.1113 16.7233C24.7672 17.101 24.8014 17.6326 25.1877 17.9107C25.3977 18.0618 25.2881 17.4614 25.6059 17.0793C25.8728 16.7585 26.6101 16.6698 26.4338 16.5429Z" clip-rule="evenodd"/></g></g><path id="Combined Shape_3" fill="#048F02" fill-rule="evenodd" d="M8.32861 13.529C8.32861 13.529 9.5145 14.7753 10.6311 14.3678C11.7478 13.9603 11.477 12.4995 11.477 12.4995L10.6311 13.1816H9.91107V13.529L9.34868 13.1816V13.529H8.32861ZM9.13066 15.4441C9.13066 15.4441 10.576 16.5646 11.5498 16.248C12.5236 15.9313 12.2791 14.4146 12.2791 14.4146L11.4332 15.0967H10.7131V15.4441L10.1507 15.0967V15.4441H9.13066ZM13.023 17.987C12.0492 18.3036 10.6038 17.1831 10.6038 17.1831H11.6239V16.8357L12.1862 17.1831V16.8357H12.9063L13.7522 16.1536C13.7522 16.1536 13.9968 17.6703 13.023 17.987Z" clip-rule="evenodd"/><g id="cross"><path id="Combined Shape_4" fill="#FDFF00" fill-rule="evenodd" d="M18.7268 4.24854H17.6018V4.84412H17.0723V5.84412H17.6018V7.58875H18.7268V5.84412H19.3705V4.84412H18.7268V4.24854Z" clip-rule="evenodd"/></g><path id="beak" fill="#DB4400" fill-rule="evenodd" d="M20.0529 5.38477L17.4473 5.98142L20.0529 6.7133V5.38477Z" clip-rule="evenodd"/></g></g></g></g></g></g><defs><filter id="filter0_dd_91_26589" width="42" height="30" x="0" y="0" color-interpolation-filters="sRGB" filterUnits="userSpaceOnUse"><feFlood flood-opacity="0" result="BackgroundImageFix"/><feColorMatrix in="SourceAlpha" result="hardAlpha" values="0 0 0 0 0 0 0 0 0 0 0 0 0 0 0 0 0 0 127 0"/><feOffset dy="1"/><feGaussianBlur stdDeviation="1"/><feColorMatrix values="0 0 0 0 0.0627451 0 0 0 0 0.0941176 0 0 0 0 0.156863 0 0 0 0.06 0"/><feBlend in2="BackgroundImageFix" result="effect1_dropShadow_91_26589"/><feColorMatrix in="SourceAlpha" result="hardAlpha" values="0 0 0 0 0 0 0 0 0 0 0 0 0 0 0 0 0 0 127 0"/><feOffset dy="1"/><feGaussianBlur stdDeviation="1.5"/><feColorMatrix values="0 0 0 0 0.0627451 0 0 0 0 0.0941176 0 0 0 0 0.156863 0 0 0 0.1 0"/><feBlend in2="effect1_dropShadow_91_26589" result="effect2_dropShadow_91_26589"/><feBlend in="SourceGraphic" in2="effect2_dropShadow_91_26589" result="shape"/></filter><clipPath id="clip0_91_26589"><rect width="36" height="24" x="3" y="2" fill="white" rx="2"/></clipPath></defs></svg>

<svg xmlns="http://www.w3.org/2000/svg" fill="none" aria-hidden="true" viewBox="0 0 42 30"><g filter="url(#a)"><g clip-path="url(#b)"><mask id="c" width="36" height="24" x="3" y="2" maskUnits="userSpaceOnUse" style="mask-type:alpha"><path fill="#fff" d="M3 2h36v24H3z"/></mask><g mask="url(#c)"><path fill="#D9071E" fill-rule="evenodd" d="M27.75 2H39v24H27.75V2Z" clip-rule="evenodd"/><path fill="#3D58DB" fill-rule="evenodd" d="M3 2h13.5v24H3V2Z" clip-rule="evenodd"/><path fill="#FBCD17" fill-rule="evenodd" d="M14.25 2h13.5v24h-13.5V2Z" clip-rule="evenodd"/><path fill="#FD1900" fill-rule="evenodd" d="m27.433 21.614-1.184.576-3.927-6.39 1.184-.574 3.927 6.388Zm-12.605.154 1.184.575 3.927-6.388-1.184-.576-3.927 6.389Z" clip-rule="evenodd"/><path fill="#A77B3B" fill-rule="evenodd" d="M15.8 11.39v5.55c0 1.234-1.194 2.84-1.797 3.439-.602.598-1.799 1.967-1.799 1.967V7.41c0-1.676 1.8-2.252 1.8-2.252s1.493.263 1.796 2.252v1.937c.462.324 2.006 1.317 3.004.898 1.184-.498 1.593-1.925 1.593-1.925s-.11-1.44-.597-1.44c-.486 0-.525-2.028 1.337-2.028 1.861 0 2.078.782 2.078 1.405 0 .327-.294.851-.575 1.35-.254.453-.497.885-.497 1.13 0 .513.435 1.508 1.072 1.508.447 0 2.595-.742 3.839-1.185V7.41c.303-1.989 1.797-2.252 1.797-2.252s1.8.576 1.8 2.252v14.937s-1.197-1.37-1.8-1.967c-.602-.598-1.797-2.205-1.797-3.439v-5.55H15.8Zm1.994 10.442c1.217-.704 2.997-3.862 2.997-3.862l.59.122s.903 2.092 3.556 3.74c-2.828.671-3.556 2.018-3.556 2.018 0-1.077-3.587-2.018-3.587-2.018Zm-.196-1.998c.82 0 1.485-.56 1.485-1.25s-.665-1.25-1.485-1.25c-.82 0-1.485.56-1.485 1.25s.665 1.25 1.485 1.25Zm8.712-1.25c0 .69-.665 1.25-1.485 1.25-.82 0-1.485-.56-1.485-1.25s.665-1.25 1.485-1.25c.82 0 1.485.56 1.485 1.25Z" clip-rule="evenodd"/><path fill="#FDFF00" d="m31.283 12.408 1.032.397-4.207 8.651-1.032-.396 4.207-8.652Z"/><path fill="#E1E5E8" fill-rule="evenodd" d="M15.42 9.834H27.3v7.638s-3.023.81-5.94 2.138c-2.153-1.42-5.94-2.138-5.94-2.138V9.833Z" clip-rule="evenodd" opacity=".3"/><mask id="d" width="13" height="11" x="15" y="9" maskUnits="userSpaceOnUse" style="mask-type:alpha"><path fill="#fff" fill-rule="evenodd" d="M15.42 9.834H27.3v7.638s-3.023.81-5.94 2.138c-2.153-1.42-5.94-2.138-5.94-2.138V9.833Z" clip-rule="evenodd"/></mask><g mask="url(#d)"><path fill="#3D58DB" d="M15.42 14.834H27.3v5H15.42z"/><path fill="#FD1900" d="M15.42 9.834H27.3v5H15.42z"/><path fill="#FDFF00" fill-rule="evenodd" d="m20.76 12.082-.9.066.519-.622-.553-.645.905.103.347-.71.385.726.9-.067-.519.623.554.645-.905-.104-.347.711-.386-.726Z" clip-rule="evenodd"/><path fill="#FDFF00" fill-rule="evenodd" d="M19.144 10.672s-2.42 1.308-1.613 2.247c.806.939 1.821 1.06 1.821 1.06s-2.474 3.298 1.88 5.183c4.663-1.82 2.21-5.184 2.21-5.184s1.436-.282 1.723-1.297c.288-1.016-1.875-2.18-1.875-2.18s1.35 1.739 1.041 2.18c-.308.44-1.959.89-3.098.89-1.14 0-2.9-.285-3.184-1.056-.284-.77 1.095-1.843 1.095-1.843Z" clip-rule="evenodd"/><path fill="#FDFF00" fill-rule="evenodd" d="m16.905 14 1.485.833-1.485.834-1.485-.834L16.905 14Zm8.91 0 1.485.833-1.485.834-1.485-.834L25.815 14Zm-8.955 3.3c.249 0 .45-.18.45-.4 0-.22-.201-.4-.45-.4-.248 0-.45.18-.45.4 0 .22.202.4.45.4Zm9.574-.757c-.387-.278-.979-.197-1.323.18-.344.378-.31.91.077 1.188.21.15.1-.45.418-.832.267-.32 1.004-.41.828-.536Z" clip-rule="evenodd"/></g><path fill="#048F02" fill-rule="evenodd" d="M8.329 13.529s1.185 1.246 2.302.839c1.117-.408.846-1.869.846-1.869l-.846.683h-.72v.347l-.562-.347v.347h-1.02Zm.802 1.915s1.445 1.12 2.419.804c.974-.317.73-1.833.73-1.833l-.847.682h-.72v.347l-.562-.347v.347H9.13Zm3.892 2.543c-.974.317-2.42-.804-2.42-.804h1.02v-.347l.563.347v-.347h.72l.846-.682s.245 1.516-.729 1.833Z" clip-rule="evenodd"/><path fill="#FDFF00" fill-rule="evenodd" d="M18.727 4.249h-1.125v.595h-.53v1h.53V7.59h1.125V5.844h.643v-1h-.643V4.25Z" clip-rule="evenodd"/><path fill="#DB4400" fill-rule="evenodd" d="m20.053 5.385-2.606.596 2.606.732V5.385Z" clip-rule="evenodd"/></g></g></g><defs><clipPath id="b"><rect width="36" height="24" x="3" y="2" fill="#fff" rx="2"/></clipPath><filter id="a" width="42" height="30" x="0" y="0" color-interpolation-filters="sRGB" filterUnits="userSpaceOnUse"><feFlood flood-opacity="0" result="BackgroundImageFix"/><feColorMatrix in="SourceAlpha" result="hardAlpha" values="0 0 0 0 0 0 0 0 0 0 0 0 0 0 0 0 0 0 127 0"/><feOffset dy="1"/><feGaussianBlur stdDeviation="1"/><feColorMatrix values="0 0 0 0 0.0627451 0 0 0 0 0.0941176 0 0 0 0 0.156863 0 0 0 0.06 0"/><feBlend in2="BackgroundImageFix" result="effect1_dropShadow_91_26589"/><feColorMatrix in="SourceAlpha" result="hardAlpha" values="0 0 0 0 0 0 0 0 0 0 0 0 0 0 0 0 0 0 127 0"/><feOffset dy="1"/><feGaussianBlur stdDeviation="1.5"/><feColorMatrix values="0 0 0 0 0.0627451 0 0 0 0 0.0941176 0 0 0 0 0.156863 0 0 0 0.1 0"/><feBlend in2="effect1_dropShadow_91_26589" result="effect2_dropShadow_91_26589"/><feBlend in="SourceGraphic" in2="effect2_dropShadow_91_26589" result="shape"/></filter></defs></svg>
